;FLAVOR:Marlin
;TIME:3220
;Filament used: 1.36297m
;Layer height: 0.2
;MINX:90.051
;MINY:89.655
;MINZ:0.2
;MAXX:129.779
;MAXY:128.121
;MAXZ:19.8
;Generated with Cura_SteamEngine 4.2.1
M140 S50
M105
M190 S50
M104 S200
M105
M109 S200
M82 ;absolute extrusion mode
M201 X500.00 Y500.00 Z100.00 E5000.00 ;Setup machine max acceleration
M203 X500.00 Y500.00 Z10.00 E50.00 ;Setup machine max feedrate
M204 P500.00 R1000.00 T500.00 ;Setup Print/Retract/Travel acceleration
M205 X8.00 Y8.00 Z0.40 E5.00 ;Setup Jerk
M220 S100 ;Reset Feedrate
M221 S100 ;Reset Flowrate

G28 ;Home

G92 E0 ;Reset Extruder
G1 Z2.0 F3000 ;Move Z Axis up
G1 X10.1 Y20 Z0.28 F5000.0 ;Move to start position
G1 X10.1 Y200.0 Z0.28 F1500.0 E15 ;Draw the first line
G1 X10.4 Y200.0 Z0.28 F5000.0 ;Move to side a little
G1 X10.4 Y20 Z0.28 F1500.0 E30 ;Draw the second line
G92 E0 ;Reset Extruder
G1 Z2.0 F3000 ;Move Z Axis up

M141 S28
G92 E0
G92 E0
G1 F2700 E-5
;LAYER_COUNT:99
;LAYER:0
M107
G0 F6000 X92.951 Y99.396 Z0.2
;TYPE:SKIRT
G1 F2700 E0
G1 F1200 X93.226 Y99.15 E0.0135
G1 X93.853 Y98.643 E0.043
G1 X94.766 Y98.065 E0.08253
G1 X94.904 Y97.99 E0.08828
G1 X95.631 Y97.64 E0.1178
G1 X96.389 Y97.364 E0.14731
G1 X96.971 Y97.208 E0.16936
G1 X97.298 Y97.133 E0.18163
G1 X97.418 Y97.112 E0.18609
G1 X97.545 Y96.959 E0.19337
G1 X97.754 Y96.721 E0.20495
G1 X98.315 Y96.142 E0.23445
G1 X98.932 Y95.621 E0.26399
G1 X99.355 Y95.319 E0.28301
G1 X99.664 Y95.113 E0.2966
G1 X100.356 Y94.699 E0.3261
G1 X101.392 Y94.238 E0.36759
G1 X101.639 Y94.148 E0.3772
G1 X102.41 Y93.91 E0.40673
G1 X103.588 Y93.699 E0.45051
G1 X103.984 Y93.658 E0.46508
G1 X104.205 Y93.647 E0.47317
G1 X104.722 Y93.096 E0.50081
G1 X105.483 Y92.449 E0.53736
G1 X105.623 Y92.344 E0.54376
G1 X106.292 Y91.893 E0.57328
G1 X107.002 Y91.509 E0.60281
G1 X107.746 Y91.199 E0.6323
G1 X108.677 Y90.924 E0.66782
G1 X108.911 Y90.87 E0.6766
G1 X109.705 Y90.728 E0.70611
G1 X110.509 Y90.665 E0.73562
G1 X110.541 Y90.666 E0.73679
G1 X111.156 Y90.399 E0.76132
G1 X111.455 Y90.286 E0.77301
G1 X112.078 Y90.079 E0.79703
G1 X112.276 Y90.022 E0.80457
G1 X112.391 Y89.988 E0.80896
G1 X113.175 Y89.798 E0.83847
G1 X113.974 Y89.687 E0.86798
G1 X114.78 Y89.655 E0.8975
G1 X115.586 Y89.704 E0.92704
G1 X116.382 Y89.832 E0.95654
G1 X117.162 Y90.038 E0.98605
G1 X117.856 Y90.294 E1.01312
G1 X118.041 Y90.372 E1.02046
G1 X118.768 Y90.722 E1.04998
G1 X119.457 Y91.142 E1.0795
G1 X119.511 Y91.183 E1.08198
G1 X119.879 Y91.251 E1.09567
G1 X120.588 Y91.453 E1.12265
G1 X120.824 Y91.532 E1.13175
G1 X121.575 Y91.826 E1.16126
G1 X122.294 Y92.192 E1.19078
G1 X122.973 Y92.628 E1.2203
G1 X123.709 Y93.222 E1.2549
G1 X123.892 Y93.388 E1.26394
G1 X124.462 Y93.959 E1.29346
G1 X124.84 Y94.408 E1.31493
G1 X124.993 Y94.604 E1.32403
G1 X125.277 Y95.021 E1.34249
G1 X126.207 Y95.679 E1.38417
G1 X126.442 Y95.872 E1.39529
G1 X127.039 Y96.414 E1.42479
G1 X127.717 Y97.185 E1.46236
G1 X127.887 Y97.405 E1.47253
G1 X128.348 Y98.067 E1.50204
G1 X128.72 Y98.727 E1.52976
G1 X128.823 Y98.932 E1.53816
G1 X129.149 Y99.67 E1.56767
G1 X129.419 Y100.507 E1.59985
G1 X129.493 Y100.787 E1.61045
G1 X129.66 Y101.576 E1.63995
G1 X129.75 Y102.412 E1.67071
G1 X129.766 Y102.698 E1.68119
G1 X129.779 Y103.157 E1.69799
G1 X129.772 Y118.727 E2.26764
G1 X129.716 Y119.674 E2.30235
G1 X129.686 Y119.929 E2.31174
G1 X129.552 Y120.725 E2.34127
G1 X129.291 Y121.651 E2.37647
G1 X129.202 Y121.907 E2.38639
G1 X128.899 Y122.655 E2.41592
G1 X128.359 Y123.637 E2.45692
G1 X128.186 Y123.906 E2.46862
G1 X127.717 Y124.562 E2.49812
G1 X127.185 Y125.168 E2.52762
G1 X126.759 Y125.577 E2.54923
G1 X126.49 Y125.817 E2.56242
G1 X125.862 Y126.324 E2.59195
G1 X125.187 Y126.765 E2.62145
G1 X124.681 Y127.039 E2.6425
G1 X124.39 Y127.183 E2.65438
G1 X123.65 Y127.504 E2.68389
G1 X122.862 Y127.756 E2.71416
G1 X122.639 Y127.815 E2.7226
G1 X121.85 Y127.983 E2.75211
G1 X120.885 Y128.079 E2.78759
G1 X119.991 Y128.115 E2.82033
G1 X119.515 Y128.121 E2.83774
G1 X119.35 Y128.118 E2.84378
G1 X104.769 Y128.118 E3.37724
G1 X104 Y128.082 E3.40541
G1 X103.726 Y128.056 E3.41548
G1 X102.928 Y127.94 E3.44498
G1 X101.898 Y127.667 E3.48397
G1 X101.598 Y127.566 E3.49555
G1 X100.847 Y127.271 E3.52507
G1 X99.977 Y126.813 E3.56104
G1 X99.708 Y126.65 E3.57255
G1 X99.039 Y126.198 E3.60208
G1 X98.876 Y126.06 E3.6099
G1 X98.67 Y125.988 E3.61788
G1 X97.922 Y125.685 E3.64741
G1 X97.208 Y125.31 E3.67691
G1 X96.261 Y124.656 E3.71902
G1 X96.146 Y124.564 E3.72441
G1 X95.602 Y124.083 E3.75098
G1 X94.96 Y123.789 E3.77681
G1 X94.264 Y123.382 E3.80631
G1 X93.611 Y122.909 E3.83581
G1 X93.415 Y122.735 E3.8454
G1 X93.278 Y122.64 E3.8515
G1 X92.663 Y122.118 E3.88101
G1 X92.103 Y121.538 E3.91051
G1 X91.602 Y120.905 E3.94004
G1 X91.167 Y120.226 E3.96954
G1 X90.801 Y119.507 E3.99906
G1 X90.508 Y118.755 E4.02859
G1 X90.224 Y117.648 E4.0704
G1 X90.184 Y117.43 E4.07851
G1 X90.078 Y116.63 E4.10804
G1 X90.051 Y115.824 E4.13754
G1 X90.1 Y115.057 E4.16566
G1 X90.134 Y114.757 E4.1767
G1 X90.198 Y114.038 E4.20311
G1 X90.349 Y113.246 E4.23261
G1 X90.476 Y112.785 E4.25011
G1 X90.506 Y112.687 E4.25386
G1 X90.78 Y111.929 E4.28335
G1 X91.127 Y111.201 E4.31285
G1 X91.332 Y110.863 E4.32731
G1 X91.018 Y110.295 E4.35106
G1 X90.722 Y109.615 E4.37819
G1 X90.658 Y109.447 E4.38477
G1 X90.409 Y108.68 E4.41427
G1 X90.236 Y107.892 E4.44379
G1 X90.164 Y107.341 E4.46412
G1 X90.142 Y107.116 E4.47239
G1 X90.116 Y106.78 E4.48472
G1 X90.092 Y106.352 E4.5004
G1 X90.087 Y105.545 E4.52993
G1 X90.161 Y104.742 E4.55943
G1 X90.315 Y103.95 E4.58895
G1 X90.578 Y103.09 E4.62185
G1 X90.737 Y102.657 E4.63873
G1 X91.052 Y101.915 E4.66822
G1 X91.439 Y101.207 E4.69774
G1 X91.895 Y100.541 E4.72727
G1 X92.414 Y99.923 E4.7568
G1 X92.951 Y99.396 E4.78433
G0 F6000 X93.244 Y99.724
G1 F1200 X93.519 Y99.478 E4.79783
G1 X94.13 Y98.985 E4.82655
G1 X94.976 Y98.452 E4.86313
G1 X95.114 Y98.377 E4.86888
G1 X95.822 Y98.038 E4.8976
G1 X96.56 Y97.772 E4.9263
G1 X97.07 Y97.637 E4.9456
G1 X97.397 Y97.562 E4.95787
G1 X97.677 Y97.513 E4.96827
G1 X97.875 Y97.249 E4.98035
G1 X98.084 Y97.011 E4.99194
G1 X98.631 Y96.449 E5.02063
G1 X99.233 Y95.945 E5.04935
G1 X99.599 Y95.685 E5.06578
G1 X99.908 Y95.479 E5.07937
G1 X100.582 Y95.078 E5.10806
G1 X101.543 Y94.651 E5.14653
G1 X101.79 Y94.561 E5.15615
G1 X102.54 Y94.331 E5.18485
G1 X103.633 Y94.137 E5.22546
G1 X104.029 Y94.096 E5.24003
G1 X104.414 Y94.076 E5.25413
G1 X104.505 Y93.969 E5.25927
G1 X105.043 Y93.398 E5.28798
G1 X105.747 Y92.801 E5.32175
G1 X105.887 Y92.696 E5.32815
G1 X106.538 Y92.258 E5.35686
G1 X107.23 Y91.888 E5.38557
G1 X107.956 Y91.591 E5.41426
G1 X108.776 Y91.353 E5.4455
G1 X109.01 Y91.299 E5.45429
G1 X109.782 Y91.162 E5.48298
G1 X110.565 Y91.104 E5.5117
G1 X110.634 Y91.106 E5.51423
G1 X110.657 Y91.093 E5.51519
G1 X111.312 Y90.81 E5.5413
G1 X111.611 Y90.697 E5.55299
G1 X112.2 Y90.501 E5.5757
G1 X112.422 Y90.437 E5.58416
G1 X112.422 Y90.438 E5.58419
G1 X112.516 Y90.41 E5.58778
G1 X113.278 Y90.226 E5.61646
G1 X114.056 Y90.121 E5.64518
G1 X114.84 Y90.096 E5.67388
G1 X115.623 Y90.151 E5.7026
G1 X116.396 Y90.285 E5.7313
G1 X117.151 Y90.498 E5.76
G1 X117.685 Y90.7 E5.78089
G1 X117.87 Y90.778 E5.78824
G1 X118.577 Y91.119 E5.81695
G1 X119.245 Y91.53 E5.84565
G1 X119.331 Y91.596 E5.84962
G1 X119.861 Y91.699 E5.86937
G1 X120.448 Y91.87 E5.89174
G1 X120.684 Y91.949 E5.90084
G1 X121.415 Y92.236 E5.92957
G1 X122.112 Y92.595 E5.95826
G1 X122.769 Y93.024 E5.98697
G1 X123.413 Y93.548 E6.01734
G1 X123.596 Y93.714 E6.02638
G1 X124.15 Y94.27 E6.0551
G1 X124.493 Y94.679 E6.07463
G1 X124.646 Y94.875 E6.08372
G1 X124.972 Y95.353 E6.10489
G1 X125.046 Y95.393 E6.10797
G1 X125.928 Y96.019 E6.14754
G1 X126.163 Y96.212 E6.15867
G1 X126.743 Y96.74 E6.18736
G1 X127.369 Y97.454 E6.2221
G1 X127.539 Y97.674 E6.23227
G1 X127.986 Y98.318 E6.26096
G1 X128.326 Y98.925 E6.28641
G1 X128.429 Y99.13 E6.2948
G1 X128.745 Y99.848 E6.3235
G1 X128.993 Y100.62 E6.35317
G1 X129.067 Y100.9 E6.36377
G1 X129.229 Y101.667 E6.39245
G1 X129.311 Y102.437 E6.42078
G1 X129.327 Y102.723 E6.43126
G1 X129.339 Y103.156 E6.4471
G1 X129.332 Y118.726 E7.01675
G1 X129.279 Y119.623 E7.04963
G1 X129.249 Y119.878 E7.05902
G1 X129.118 Y120.651 E7.0877
G1 X128.875 Y121.507 E7.12026
G1 X128.786 Y121.763 E7.13018
G1 X128.491 Y122.49 E7.15888
G1 X127.989 Y123.399 E7.19687
G1 X127.816 Y123.668 E7.20857
G1 X127.359 Y124.305 E7.23726
G1 X126.839 Y124.893 E7.26597
G1 X126.466 Y125.249 E7.28484
G1 X126.197 Y125.489 E7.29803
G1 X125.586 Y125.98 E7.32671
G1 X124.928 Y126.408 E7.35542
G1 X124.486 Y126.644 E7.37376
G1 X124.195 Y126.788 E7.38563
G1 X123.475 Y127.1 E7.41434
G1 X122.749 Y127.331 E7.44222
G1 X122.526 Y127.39 E7.45066
G1 X121.759 Y127.552 E7.47934
G1 X120.867 Y127.64 E7.51213
G1 X119.973 Y127.676 E7.54486
G1 X119.523 Y127.681 E7.56133
G1 X119.358 Y127.678 E7.56737
G1 X104.769 Y127.678 E8.10112
G1 X104.042 Y127.644 E8.12775
G1 X103.768 Y127.618 E8.13782
G1 X102.991 Y127.504 E8.16655
G1 X102.038 Y127.25 E8.20263
G1 X101.738 Y127.149 E8.21422
G1 X101.008 Y126.861 E8.24293
G1 X100.205 Y126.436 E8.27617
G1 X99.936 Y126.273 E8.28767
G1 X99.286 Y125.833 E8.31639
G1 X99.093 Y125.669 E8.32566
G1 X98.815 Y125.572 E8.33643
G1 X98.088 Y125.277 E8.36513
G1 X97.395 Y124.909 E8.39384
G1 X96.536 Y124.313 E8.43209
G1 X96.421 Y124.221 E8.43748
G1 X95.849 Y123.713 E8.46547
G1 X95.144 Y123.389 E8.49386
G1 X94.468 Y122.99 E8.52258
G1 X93.837 Y122.525 E8.55125
G1 X93.669 Y122.373 E8.55954
G1 X93.478 Y122.238 E8.5681
G1 X92.886 Y121.723 E8.59681
G1 X92.35 Y121.15 E8.62551
G1 X91.874 Y120.526 E8.65423
G1 X91.465 Y119.857 E8.68291
G1 X91.126 Y119.149 E8.71163
G1 X90.861 Y118.411 E8.74032
G1 X90.656 Y117.569 E8.77203
G1 X90.616 Y117.351 E8.78014
G1 X90.514 Y116.573 E8.80884
G1 X90.492 Y115.788 E8.83758
G1 X90.538 Y115.106 E8.86258
G1 X90.565 Y114.867 E8.87138
G1 X90.565 Y114.859 E8.87168
G1 X90.637 Y114.078 E8.90037
G1 X90.787 Y113.308 E8.92907
G1 X90.896 Y112.914 E8.94403
G1 X90.926 Y112.816 E8.94778
G1 X91.194 Y112.079 E8.97647
G1 X91.535 Y111.372 E9.00519
G1 X91.849 Y110.861 E9.02713
G1 X91.715 Y110.66 E9.03597
G1 X91.348 Y109.966 E9.06469
G1 X91.133 Y109.458 E9.08487
G1 X91.069 Y109.29 E9.09145
G1 X90.828 Y108.544 E9.12013
G1 X90.663 Y107.776 E9.14887
G1 X90.602 Y107.298 E9.1665
G1 X90.58 Y107.073 E9.17477
G1 X90.555 Y106.755 E9.18644
G1 X90.531 Y106.327 E9.20213
G1 X90.527 Y105.543 E9.23081
G1 X90.603 Y104.762 E9.25952
G1 X90.758 Y103.992 E9.28826
G1 X90.991 Y103.242 E9.31699
G1 X91.15 Y102.809 E9.33387
G1 X91.458 Y102.087 E9.36258
G1 X91.837 Y101.4 E9.39129
G1 X92.284 Y100.756 E9.41997
G1 X92.795 Y100.16 E9.44869
G1 X93.244 Y99.724 E9.47159
G0 F6000 X93.538 Y100.052
G1 F1200 X93.813 Y99.806 E9.48509
G1 X94.406 Y99.329 E9.51293
G1 X95.186 Y98.838 E9.54665
G1 X95.324 Y98.763 E9.5524
G1 X96.012 Y98.435 E9.58029
G1 X96.73 Y98.181 E9.60815
G1 X97.168 Y98.066 E9.62472
G1 X97.495 Y97.991 E9.63699
G1 X97.922 Y97.916 E9.65285
G1 X98.206 Y97.54 E9.67009
G1 X98.415 Y97.302 E9.68168
G1 X98.947 Y96.756 E9.70957
G1 X99.843 Y96.051 E9.75128
G1 X100.152 Y95.845 E9.76487
G1 X100.807 Y95.457 E9.79272
G1 X101.694 Y95.065 E9.8282
G1 X101.941 Y94.975 E9.83782
G1 X102.669 Y94.752 E9.86568
G1 X103.678 Y94.575 E9.90316
G1 X104.074 Y94.534 E9.91772
G1 X104.626 Y94.505 E9.93795
G1 X104.84 Y94.254 E9.95001
G1 X105.363 Y93.701 E9.97786
G1 X106.011 Y93.153 E10.00891
G1 X106.151 Y93.048 E10.01531
G1 X106.784 Y92.624 E10.04319
G1 X107.457 Y92.268 E10.07104
G1 X108.164 Y91.984 E10.09892
G1 X108.875 Y91.782 E10.12596
G1 X109.109 Y91.728 E10.13475
G1 X109.859 Y91.596 E10.16261
G1 X110.619 Y91.543 E10.19048
G1 X110.745 Y91.547 E10.19509
G1 X110.87 Y91.479 E10.2003
G1 X111.467 Y91.222 E10.22408
G1 X111.766 Y91.109 E10.23577
G1 X112.322 Y90.924 E10.25721
G1 X112.544 Y90.86 E10.26566
G1 X112.64 Y90.832 E10.26932
G1 X113.381 Y90.655 E10.2972
G1 X114.137 Y90.556 E10.32509
G1 X114.898 Y90.538 E10.35294
G1 X115.658 Y90.599 E10.38084
G1 X116.406 Y90.74 E10.40868
G1 X117.136 Y90.958 E10.43656
G1 X117.515 Y91.105 E10.45143
G1 X117.7 Y91.183 E10.45878
G1 X118.385 Y91.516 E10.48664
G1 X119.032 Y91.918 E10.51451
G1 X119.142 Y92.004 E10.51962
G1 X119.841 Y92.148 E10.54573
G1 X120.309 Y92.287 E10.56359
G1 X120.545 Y92.366 E10.5727
G1 X121.253 Y92.646 E10.60055
G1 X121.929 Y92.998 E10.62844
G1 X122.564 Y93.419 E10.65631
G1 X123.118 Y93.874 E10.68254
G1 X123.301 Y94.04 E10.69158
G1 X123.837 Y94.58 E10.71941
G1 X124.146 Y94.95 E10.73705
G1 X124.299 Y95.146 E10.74615
G1 X124.671 Y95.69 E10.77026
G1 X124.836 Y95.78 E10.77714
G1 X125.649 Y96.359 E10.81365
G1 X125.884 Y96.552 E10.82478
G1 X126.446 Y97.065 E10.85262
G1 X127.021 Y97.723 E10.88459
G1 X127.191 Y97.943 E10.89476
G1 X127.624 Y98.569 E10.92261
G1 X127.933 Y99.123 E10.94582
G1 X128.036 Y99.328 E10.95421
G1 X128.342 Y100.025 E10.98206
G1 X128.568 Y100.732 E11.00922
G1 X128.642 Y101.012 E11.01981
G1 X128.798 Y101.758 E11.04769
G1 X128.872 Y102.461 E11.07356
G1 X128.888 Y102.747 E11.08404
G1 X128.899 Y103.156 E11.09901
G1 X128.892 Y118.726 E11.66865
G1 X128.842 Y119.571 E11.69962
G1 X128.812 Y119.826 E11.70902
G1 X128.684 Y120.577 E11.73689
G1 X128.459 Y121.362 E11.76676
G1 X128.37 Y121.618 E11.77668
G1 X128.083 Y122.323 E11.80453
G1 X127.619 Y123.161 E11.83957
G1 X127.446 Y123.43 E11.85128
G1 X127.001 Y124.048 E11.87914
G1 X126.494 Y124.617 E11.90702
G1 X126.173 Y124.92 E11.92317
G1 X125.904 Y125.16 E11.93636
G1 X125.31 Y125.637 E11.96423
G1 X124.669 Y126.049 E11.99211
G1 X124.291 Y126.25 E12.00777
G1 X124 Y126.394 E12.01965
G1 X123.3 Y126.695 E12.04753
G1 X122.637 Y126.906 E12.07298
G1 X122.414 Y126.965 E12.08142
G1 X121.668 Y127.12 E12.1093
G1 X120.849 Y127.2 E12.13941
G1 X119.955 Y127.236 E12.17214
G1 X119.531 Y127.241 E12.18765
G1 X119.366 Y127.238 E12.19369
G1 X104.769 Y127.238 E12.72774
G1 X104.083 Y127.206 E12.75287
G1 X103.809 Y127.18 E12.76294
G1 X103.056 Y127.068 E12.79079
G1 X102.179 Y126.833 E12.82401
G1 X101.879 Y126.732 E12.83559
G1 X101.17 Y126.451 E12.86349
G1 X100.433 Y126.06 E12.89401
G1 X100.164 Y125.897 E12.90552
G1 X99.534 Y125.469 E12.93339
G1 X99.313 Y125.28 E12.94403
G1 X98.959 Y125.157 E12.95774
G1 X98.254 Y124.869 E12.9856
G1 X97.583 Y124.508 E13.01348
G1 X96.811 Y123.969 E13.04792
G1 X96.696 Y123.877 E13.05331
G1 X96.127 Y123.371 E13.08117
G1 X96.098 Y123.339 E13.08275
G1 X96.02 Y123.308 E13.08582
G1 X95.329 Y122.989 E13.11367
G1 X94.674 Y122.599 E13.14156
G1 X94.064 Y122.142 E13.16944
G1 X93.925 Y122.013 E13.17638
G1 X93.68 Y121.837 E13.18742
G1 X93.113 Y121.329 E13.21527
G1 X92.601 Y120.764 E13.24316
G1 X92.152 Y120.149 E13.27102
G1 X91.769 Y119.49 E13.29891
G1 X91.458 Y118.795 E13.32677
G1 X91.221 Y118.071 E13.35464
G1 X91.089 Y117.489 E13.37647
G1 X91.049 Y117.271 E13.38458
G1 X90.951 Y116.516 E13.41244
G1 X90.933 Y115.754 E13.44032
G1 X90.975 Y115.155 E13.46229
G1 X91.004 Y114.892 E13.47197
G1 X91.005 Y114.877 E13.47252
G1 X91.075 Y114.118 E13.50041
G1 X91.317 Y113.043 E13.54072
G1 X91.347 Y112.945 E13.54447
G1 X91.608 Y112.229 E13.57235
G1 X91.942 Y111.545 E13.6002
G1 X92.347 Y110.899 E13.6281
G1 X92.375 Y110.863 E13.62977
G1 X92.026 Y110.32 E13.65338
G1 X91.545 Y109.302 E13.69458
G1 X91.481 Y109.134 E13.70115
G1 X91.247 Y108.408 E13.72906
G1 X91.091 Y107.663 E13.75691
G1 X91.039 Y107.255 E13.77196
G1 X91.017 Y107.03 E13.78023
G1 X90.994 Y106.73 E13.79124
G1 X90.97 Y106.302 E13.80692
G1 X90.968 Y105.541 E13.83476
G1 X91.045 Y104.783 E13.86264
G1 X91.201 Y104.037 E13.89052
G1 X91.404 Y103.393 E13.91522
G1 X91.563 Y102.96 E13.9321
G1 X91.863 Y102.26 E13.95996
G1 X92.234 Y101.595 E13.98782
G1 X92.673 Y100.972 E14.01571
G1 X93.175 Y100.399 E14.04358
G1 X93.538 Y100.052 E14.06195
G0 F6000 X93.831 Y100.38
G1 F1200 X94.106 Y100.134 E14.07545
G1 X94.682 Y99.672 E14.10246
G1 X95.396 Y99.225 E14.13328
G1 X95.534 Y99.15 E14.13903
G1 X96.201 Y98.833 E14.16605
G1 X96.898 Y98.59 E14.19306
G1 X97.266 Y98.495 E14.20696
G1 X97.593 Y98.42 E14.21923
G1 X98.165 Y98.321 E14.24047
G1 X98.536 Y97.83 E14.26299
G1 X98.745 Y97.592 E14.27458
G1 X99.262 Y97.064 E14.30161
G1 X100.087 Y96.417 E14.33997
G1 X100.396 Y96.211 E14.35356
G1 X101.032 Y95.836 E14.38057
G1 X101.844 Y95.478 E14.41304
G1 X102.091 Y95.388 E14.42266
