;FLAVOR:Marlin
;TIME:10435
;Filament used: 5.95323m
;Layer height: 0.2
;MINX:54.573
;MINY:92.171
;MINZ:0.2
;MAXX:165.427
;MAXY:127.821
;MAXZ:27
;Generated with Cura_SteamEngine 4.3.0
M140 S50
M105
M190 S50
M104 S200
M105
M109 S200
M82 ;absolute extrusion mode
M201 X500.00 Y500.00 Z100.00 E5000.00 ;Setup machine max acceleration
M203 X500.00 Y500.00 Z10.00 E50.00 ;Setup machine max feedrate
M204 P500.00 R1000.00 T500.00 ;Setup Print/Retract/Travel acceleration
M205 X8.00 Y8.00 Z0.40 E5.00 ;Setup Jerk
M220 S100 ;Reset Feedrate
M221 S100 ;Reset Flowrate

G28 ;Home

G92 E0 ;Reset Extruder
G1 Z2.0 F3000 ;Move Z Axis up
G1 X10.1 Y20 Z0.28 F5000.0 ;Move to start position
G1 X10.1 Y200.0 Z0.28 F1500.0 E15 ;Draw the first line
G1 X10.4 Y200.0 Z0.28 F5000.0 ;Move to side a little
G1 X10.4 Y20 Z0.28 F1500.0 E30 ;Draw the second line
G92 E0 ;Reset Extruder
G1 Z2.0 F3000 ;Move Z Axis up

G92 E0
G92 E0
G1 F2700 E-5
;LAYER_COUNT:135
;LAYER:0
M107
G0 F6000 X58.243 Y93.354 Z0.2
;TYPE:SKIRT
G1 F2700 E0
G1 F1200 X58.934 Y92.97 E0.02629
G1 X59.659 Y92.658 E0.05254
G1 X60.412 Y92.421 E0.0788
G1 X61.186 Y92.262 E0.10508
G1 X61.971 Y92.181 E0.13133
G1 X62.373 Y92.171 E0.1447
G1 X157.627 Y92.171 E3.31287
G1 X158.416 Y92.211 E3.33914
G1 X159.196 Y92.33 E3.36538
G1 X159.961 Y92.528 E3.39167
G1 X160.701 Y92.802 E3.41791
G1 X161.41 Y93.15 E3.44418
G1 X162.081 Y93.568 E3.47047
G1 X162.705 Y94.051 E3.49672
G1 X163.278 Y94.594 E3.52298
G1 X163.793 Y95.193 E3.54925
G1 X164.244 Y95.841 E3.57551
G1 X164.628 Y96.532 E3.6018
G1 X164.94 Y97.257 E3.62805
G1 X165.177 Y98.01 E3.65431
G1 X165.336 Y98.784 E3.68059
G1 X165.417 Y99.569 E3.70684
G1 X165.427 Y99.971 E3.72021
G1 X165.427 Y120.021 E4.38708
G1 X165.387 Y120.81 E4.41335
G1 X165.268 Y121.59 E4.4396
G1 X165.07 Y122.355 E4.46588
G1 X164.796 Y123.095 E4.49213
G1 X164.448 Y123.804 E4.51839
G1 X164.03 Y124.475 E4.54469
G1 X163.547 Y125.099 E4.57093
G1 X163.004 Y125.672 E4.59719
G1 X162.405 Y126.187 E4.62346
G1 X161.757 Y126.638 E4.64972
G1 X161.066 Y127.022 E4.67602
G1 X160.341 Y127.334 E4.70227
G1 X159.588 Y127.571 E4.72852
G1 X158.814 Y127.73 E4.7548
G1 X158.029 Y127.811 E4.78105
G1 X157.627 Y127.821 E4.79443
G1 X62.72 Y127.82 E7.95105
G1 X62.397 Y127.821 E7.96179
G1 X61.608 Y127.783 E7.98806
G1 X60.827 Y127.666 E8.01433
G1 X60.062 Y127.471 E8.04059
G1 X59.321 Y127.199 E8.06684
G1 X58.611 Y126.854 E8.09309
G1 X57.939 Y126.438 E8.11938
G1 X57.313 Y125.957 E8.14564
G1 X56.739 Y125.415 E8.1719
G1 X56.222 Y124.818 E8.19816
G1 X55.769 Y124.171 E8.22443
G1 X55.383 Y123.482 E8.2507
G1 X55.069 Y122.758 E8.27695
G1 X54.83 Y122.005 E8.30322
G1 X54.668 Y121.232 E8.32949
G1 X54.585 Y120.447 E8.35575
G1 X54.573 Y120.021 E8.36992
G1 X54.573 Y99.971 E9.03679
G1 X54.613 Y99.182 E9.06306
G1 X54.732 Y98.402 E9.08931
G1 X54.93 Y97.637 E9.11559
G1 X55.204 Y96.897 E9.14183
G1 X55.552 Y96.188 E9.1681
G1 X55.97 Y95.517 E9.1944
G1 X56.453 Y94.893 E9.22064
G1 X56.996 Y94.32 E9.2469
G1 X57.595 Y93.805 E9.27317
G1 X58.243 Y93.354 E9.29943
G0 F6000 X58.626 Y93.59
G1 F1200 X59.309 Y93.235 E9.32503
G1 X60.024 Y92.954 E9.35058
G1 X60.766 Y92.748 E9.3762
G1 X61.524 Y92.62 E9.40177
G1 X62.373 Y92.571 E9.43005
G1 X157.627 Y92.571 E12.59821
G1 X158.395 Y92.611 E12.62379
G1 X159.155 Y92.73 E12.64938
G1 X159.898 Y92.928 E12.67495
G1 X160.617 Y93.202 E12.70054
G1 X161.303 Y93.549 E12.72611
G1 X161.95 Y93.965 E12.75169
G1 X162.55 Y94.446 E12.77727
G1 X163.097 Y94.987 E12.80286
G1 X163.585 Y95.582 E12.82845
G1 X164.008 Y96.224 E12.85403
G1 X164.363 Y96.907 E12.87963
G1 X164.644 Y97.622 E12.90518
G1 X164.85 Y98.364 E12.93079
G1 X164.978 Y99.122 E12.95636
G1 X165.027 Y99.971 E12.98464
G1 X165.027 Y120.021 E13.65151
G1 X164.987 Y120.789 E13.67709
G1 X164.868 Y121.549 E13.70267
G1 X164.67 Y122.292 E13.72825
G1 X164.396 Y123.011 E13.75384
G1 X164.049 Y123.697 E13.77941
G1 X163.633 Y124.344 E13.80499
G1 X163.152 Y124.944 E13.83057
G1 X162.611 Y125.491 E13.85616
G1 X162.016 Y125.979 E13.88175
G1 X161.374 Y126.402 E13.90733
G1 X160.691 Y126.757 E13.93293
G1 X159.976 Y127.038 E13.95848
G1 X159.234 Y127.244 E13.98409
G1 X158.476 Y127.372 E14.00966
G1 X157.627 Y127.421 E14.03794
G1 X62.719 Y127.42 E17.1946
G1 X62.396 Y127.421 E17.20534
G1 X61.628 Y127.383 E17.23092
G1 X60.867 Y127.266 E17.25652
G1 X60.124 Y127.071 E17.28207
G1 X59.404 Y126.799 E17.30767
G1 X58.716 Y126.454 E17.33327
G1 X58.068 Y126.04 E17.35885
G1 X57.467 Y125.561 E17.38441
G1 X56.918 Y125.022 E17.41
G1 X56.429 Y124.428 E17.43559
G1 X56.003 Y123.788 E17.46116
G1 X55.647 Y123.106 E17.48675
G1 X55.363 Y122.391 E17.51233
G1 X55.155 Y121.651 E17.5379
G1 X55.025 Y120.893 E17.56348
G1 X54.973 Y120.021 E17.59253
G1 X54.973 Y99.971 E18.2594
G1 X55.013 Y99.203 E18.28498
G1 X55.132 Y98.443 E18.31056
G1 X55.33 Y97.7 E18.33614
G1 X55.604 Y96.981 E18.36173
G1 X55.951 Y96.295 E18.3873
G1 X56.367 Y95.648 E18.41288
G1 X56.848 Y95.048 E18.43846
G1 X57.389 Y94.501 E18.46405
G1 X57.984 Y94.013 E18.48964
G1 X58.626 Y93.59 E18.51521
G0 F6000 X58.371 Y94.228
G1 F1200 X59.007 Y93.833 E18.54012
G1 X59.681 Y93.509 E18.56499
G1 X60.386 Y93.259 E18.58987
G1 X61.114 Y93.085 E18.61476
G1 X61.856 Y92.99 E18.63964
G1 X62.373 Y92.971 E18.65685
G1 X157.627 Y92.971 E21.82501
G1 X158.374 Y93.011 E21.84989
G1 X159.112 Y93.13 E21.87476
G1 X159.834 Y93.328 E21.89966
G1 X160.53 Y93.601 E21.92452
G1 X161.193 Y93.948 E21.94941
G1 X161.816 Y94.363 E21.97431
G1 X162.39 Y94.842 E21.99917
G1 X162.911 Y95.379 E22.02406
G1 X163.37 Y95.969 E22.04892
G1 X163.765 Y96.605 E22.07382
G1 X164.089 Y97.279 E22.0987
G1 X164.339 Y97.984 E22.12358
G1 X164.513 Y98.712 E22.14847
G1 X164.608 Y99.454 E22.17335
G1 X164.627 Y99.971 E22.19056
G1 X164.627 Y120.021 E22.85742
G1 X164.587 Y120.768 E22.8823
G1 X164.468 Y121.506 E22.90717
G1 X164.27 Y122.228 E22.93207
G1 X163.997 Y122.924 E22.95693
G1 X163.65 Y123.587 E22.98182
G1 X163.235 Y124.21 E23.00672
G1 X162.756 Y124.784 E23.03159
G1 X162.219 Y125.305 E23.05647
G1 X161.629 Y125.764 E23.08133
G1 X160.993 Y126.159 E23.10624
G1 X160.319 Y126.483 E23.13111
G1 X159.614 Y126.733 E23.15599
G1 X158.886 Y126.907 E23.18088
G1 X158.144 Y127.002 E23.20576
G1 X157.627 Y127.021 E23.22297
G1 X62.718 Y127.02 E26.37966
G1 X62.395 Y127.021 E26.3904
G1 X61.648 Y126.983 E26.41528
G1 X60.909 Y126.866 E26.44016
G1 X60.187 Y126.671 E26.46504
G1 X59.489 Y126.4 E26.48994
G1 X58.825 Y126.055 E26.51483
G1 X58.202 Y125.642 E26.53969
G1 X57.626 Y125.165 E26.56456
G1 X57.104 Y124.629 E26.58945
G1 X56.642 Y124.04 E26.61435
G1 X56.246 Y123.406 E26.63921
G1 X55.92 Y122.733 E26.66408
G1 X55.667 Y122.029 E26.68896
G1 X55.491 Y121.302 E26.71384
G1 X55.394 Y120.56 E26.73873
G1 X55.373 Y120.021 E26.75667
G1 X55.373 Y99.971 E27.42354
G1 X55.413 Y99.224 E27.44842
G1 X55.532 Y98.486 E27.47328
G1 X55.73 Y97.764 E27.49818
G1 X56.003 Y97.068 E27.52305
G1 X56.35 Y96.405 E27.54794
G1 X56.765 Y95.782 E27.57283
G1 X57.244 Y95.208 E27.5977
G1 X57.781 Y94.687 E27.62258
G1 X58.371 Y94.228 E27.64745
G0 F6000 X58.757 Y94.45
G1 F1200 X59.386 Y94.086 E27.67162
G1 X60.051 Y93.793 E27.69579
G1 X60.744 Y93.575 E27.71995
G1 X61.456 Y93.435 E27.74408
G1 X62.373 Y93.371 E27.77466
G1 X157.627 Y93.371 E30.94282
G1 X158.352 Y93.411 E30.96697
G1 X159.069 Y93.53 E30.99114
G1 X159.768 Y93.728 E31.01531
G1 X160.441 Y94.001 E31.03946
G1 X161.08 Y94.346 E31.06362
G1 X161.677 Y94.76 E31.08778
G1 X162.225 Y95.236 E31.11192
G1 X162.718 Y95.77 E31.13609
G1 X163.148 Y96.355 E31.16024
G1 X163.512 Y96.984 E31.18441
G1 X163.805 Y97.649 E31.20858
G1 X164.023 Y98.342 E31.23275
G1 X164.163 Y99.054 E31.25688
G1 X164.227 Y99.971 E31.28745
G1 X164.227 Y120.021 E31.95432
G1 X164.187 Y120.746 E31.97847
G1 X164.068 Y121.463 E32.00264
G1 X163.87 Y122.162 E32.02681
G1 X163.597 Y122.835 E32.05096
G1 X163.252 Y123.474 E32.07512
G1 X162.838 Y124.071 E32.09928
G1 X162.362 Y124.619 E32.12342
G1 X161.828 Y125.112 E32.14759
G1 X161.243 Y125.542 E32.17174
G1 X160.614 Y125.906 E32.19591
G1 X159.949 Y126.199 E32.22008
G1 X159.256 Y126.417 E32.24425
G1 X158.544 Y126.557 E32.26838
G1 X157.627 Y126.621 E32.29895
G1 X62.716 Y126.62 E35.45571
G1 X62.393 Y126.621 E35.46645
G1 X61.668 Y126.583 E35.4906
G1 X60.951 Y126.466 E35.51476
G1 X60.252 Y126.271 E35.5389
G1 X59.578 Y126 E35.56306
G1 X58.938 Y125.656 E35.58722
G1 X58.339 Y125.245 E35.61139
G1 X57.79 Y124.77 E35.63553
G1 X57.295 Y124.237 E35.65973
G1 X56.863 Y123.654 E35.68386
G1 X56.497 Y123.026 E35.70804
G1 X56.202 Y122.363 E35.73217
G1 X55.982 Y121.67 E35.75635
G1 X55.84 Y120.958 E35.7805
G1 X55.773 Y120.021 E35.81175
G1 X55.773 Y99.971 E36.47861
G1 X55.813 Y99.246 E36.50276
G1 X55.932 Y98.529 E36.52694
G1 X56.13 Y97.83 E36.5511
G1 X56.403 Y97.157 E36.57525
G1 X56.748 Y96.518 E36.59941
G1 X57.162 Y95.921 E36.62357
G1 X57.638 Y95.373 E36.64771
G1 X58.172 Y94.88 E36.67189
G1 X58.757 Y94.45 E36.69603
G0 F6000 X59.141 Y94.68
G1 F1200 X59.762 Y94.348 E36.71946
G1 X60.416 Y94.088 E36.74286
G1 X61.096 Y93.904 E36.76629
G1 X61.792 Y93.798 E36.78971
G1 X62.373 Y93.771 E36.80905
G1 X157.627 Y93.771 E39.97722
G1 X158.33 Y93.811 E40.00064
G1 X159.024 Y93.93 E40.02405
G1 X159.699 Y94.128 E40.04745
G1 X160.348 Y94.4 E40.07086
G1 X160.962 Y94.745 E40.09428
G1 X161.533 Y95.156 E40.11768
G1 X162.054 Y95.63 E40.14111
G1 X162.518 Y96.16 E40.16454
G1 X162.918 Y96.739 E40.18794
G1 X163.25 Y97.36 E40.21136
G1 X163.51 Y98.014 E40.23477
G1 X163.694 Y98.694 E40.2582
G1 X163.8 Y99.39 E40.28162
G1 X163.827 Y99.971 E40.30096
G1 X163.827 Y120.021 E40.96783
G1 X163.787 Y120.724 E40.99125
G1 X163.668 Y121.418 E41.01467
G1 X163.47 Y122.093 E41.03806
G1 X163.198 Y122.742 E41.06147
G1 X162.853 Y123.356 E41.08489
G1 X162.442 Y123.927 E41.10829
G1 X161.968 Y124.448 E41.13172
G1 X161.438 Y124.912 E41.15515
G1 X160.859 Y125.312 E41.17856
G1 X160.238 Y125.644 E41.20198
G1 X159.584 Y125.904 E41.22538
G1 X158.904 Y126.088 E41.24881
G1 X158.208 Y126.194 E41.27223
G1 X157.627 Y126.221 E41.29158
G1 X62.715 Y126.22 E44.44836
G1 X62.392 Y126.221 E44.4591
G1 X61.689 Y126.183 E44.48252
G1 X60.995 Y126.066 E44.50593
G1 X60.319 Y125.871 E44.52933
G1 X59.669 Y125.6 E44.55275
G1 X59.054 Y125.258 E44.57616
G1 X58.481 Y124.848 E44.59959
G1 X57.959 Y124.375 E44.62302
G1 X57.494 Y123.847 E44.64642
G1 X57.092 Y123.269 E44.66984
G1 X56.758 Y122.65 E44.69323
G1 X56.496 Y121.996 E44.71667
G1 X56.31 Y121.317 E44.74008
G1 X56.202 Y120.621 E44.76351
G1 X56.173 Y120.021 E44.78349
G1 X56.173 Y99.971 E45.45035
G1 X56.213 Y99.268 E45.47377
G1 X56.332 Y98.574 E45.49719
G1 X56.53 Y97.899 E45.52059
G1 X56.802 Y97.25 E45.54399
G1 X57.147 Y96.636 E45.56742
G1 X57.558 Y96.065 E45.59082
G1 X58.032 Y95.544 E45.61424
G1 X58.562 Y95.08 E45.63767
G1 X59.141 Y94.68 E45.66108
G0 F6000 X59.523 Y94.919
G1 F1200 X60.135 Y94.62 E45.68373
G1 X60.777 Y94.395 E45.70636
G1 X61.442 Y94.246 E45.72903
G1 X62.373 Y94.171 E45.76009
G1 X157.627 Y94.171 E48.92825
G1 X158.307 Y94.211 E48.95091
G1 X158.977 Y94.33 E48.97354
G1 X159.629 Y94.527 E48.9962
G1 X160.253 Y94.799 E49.01884
G1 X160.841 Y95.143 E49.04149
G1 X161.385 Y95.553 E49.06415
G1 X161.876 Y96.024 E49.08678
G1 X162.31 Y96.549 E49.10944
G1 X162.679 Y97.121 E49.13208
G1 X162.978 Y97.733 E49.15473
G1 X163.203 Y98.375 E49.17736
G1 X163.352 Y99.04 E49.20002
G1 X163.427 Y99.971 E49.23109
G1 X163.427 Y120.021 E49.89796
G1 X163.387 Y120.701 E49.92061
G1 X163.268 Y121.371 E49.94324
G1 X163.071 Y122.023 E49.9659
G1 X162.799 Y122.647 E49.98854
G1 X162.455 Y123.235 E50.0112
G1 X162.045 Y123.779 E50.03385
G1 X161.574 Y124.27 E50.05648
G1 X161.049 Y124.704 E50.07914
G1 X160.477 Y125.073 E50.10178
G1 X159.865 Y125.372 E50.12443
G1 X159.223 Y125.597 E50.14706
G1 X158.558 Y125.746 E50.16973
G1 X157.627 Y125.821 E50.20079
G1 X62.714 Y125.82 E53.35761
G1 X62.391 Y125.821 E53.36835
G1 X61.711 Y125.783 E53.39101
G1 X61.04 Y125.666 E53.41366
G1 X60.388 Y125.471 E53.43629
G1 X59.763 Y125.201 E53.45894
G1 X59.174 Y124.859 E53.48159
G1 X58.629 Y124.451 E53.50424
G1 X58.136 Y123.982 E53.52687
G1 X57.701 Y123.458 E53.54952
G1 X57.33 Y122.887 E53.57217
G1 X57.029 Y122.276 E53.59482
G1 X56.802 Y121.634 E53.61747
G1 X56.651 Y120.97 E53.64012
G1 X56.573 Y120.021 E53.67179
G1 X56.573 Y99.971 E54.33865
G1 X56.613 Y99.291 E54.36131
G1 X56.732 Y98.621 E54.38394
G1 X56.929 Y97.969 E54.4066
G1 X57.201 Y97.345 E54.42924
G1 X57.545 Y96.757 E54.4519
G1 X57.955 Y96.213 E54.47455
G1 X58.426 Y95.722 E54.49718
G1 X58.951 Y95.288 E54.51984
G1 X59.523 Y94.919 E54.54248
G0 F6000 X59.338 Y95.505
G1 F1200 X59.902 Y95.169 E54.56431
G1 X60.504 Y94.905 E54.58618
G1 X61.133 Y94.715 E54.60803
G1 X61.78 Y94.604 E54.62986
G1 X62.373 Y94.571 E54.64962
G1 X157.627 Y94.571 E57.81778
G1 X158.283 Y94.611 E57.83964
G1 X158.929 Y94.73 E57.86149
G1 X159.556 Y94.927 E57.88334
G1 X160.154 Y95.199 E57.90519
G1 X160.715 Y95.541 E57.92705
G1 X161.23 Y95.949 E57.9489
G1 X161.692 Y96.416 E57.97075
G1 X162.093 Y96.936 E57.99259
G1 X162.429 Y97.5 E58.01443
G1 X162.693 Y98.102 E58.03629
G1 X162.883 Y98.731 E58.05814
G1 X162.994 Y99.378 E58.07998
G1 X163.027 Y99.971 E58.09973
G1 X163.027 Y120.021 E58.7666
G1 X162.987 Y120.677 E58.78846
G1 X162.868 Y121.323 E58.8103
G1 X162.671 Y121.95 E58.83216
G1 X162.399 Y122.548 E58.85401
G1 X162.057 Y123.109 E58.87587
G1 X161.649 Y123.624 E58.89772
G1 X161.182 Y124.086 E58.91957
G1 X160.662 Y124.487 E58.94141
G1 X160.098 Y124.823 E58.96324
G1 X159.496 Y125.087 E58.98511
G1 X158.867 Y125.277 E59.00696
G1 X158.22 Y125.388 E59.02879
G1 X157.627 Y125.421 E59.04855
G1 X62.713 Y125.42 E62.2054
G1 X62.39 Y125.421 E62.21614
G1 X61.734 Y125.383 E62.238
G1 X61.087 Y125.266 E62.25987
G1 X60.46 Y125.071 E62.28171
G1 X59.861 Y124.801 E62.30356
G1 X59.299 Y124.461 E62.32541
G1 X58.783 Y124.055 E62.34724
G1 X58.319 Y123.589 E62.36912
G1 X57.916 Y123.07 E62.39097
G1 X57.579 Y122.506 E62.41282
G1 X57.313 Y121.906 E62.43465
G1 X57.121 Y121.277 E62.45653
G1 X57.007 Y120.63 E62.47838
G1 X56.973 Y120.021 E62.49866
G1 X56.973 Y99.971 E63.16553
G1 X57.013 Y99.315 E63.18739
G1 X57.132 Y98.669 E63.20924
G1 X57.329 Y98.042 E63.2311
G1 X57.601 Y97.444 E63.25295
G1 X57.943 Y96.883 E63.2748
G1 X58.351 Y96.368 E63.29665
G1 X58.818 Y95.906 E63.3185
G1 X59.338 Y95.505 E63.34034
G0 F6000 X59.723 Y95.731
G1 F1200 X60.279 Y95.431 E63.36135
G1 X60.868 Y95.203 E63.38236
G1 X61.482 Y95.051 E63.4034
G1 X62.373 Y94.971 E63.43315
G1 X157.627 Y94.971 E66.60131
G1 X158.258 Y95.011 E66.62234
G1 X158.879 Y95.13 E66.64337
G1 X159.479 Y95.327 E66.66438
G1 X160.051 Y95.598 E66.68543
G1 X160.583 Y95.938 E66.70643
G1 X161.068 Y96.344 E66.72747
G1 X161.498 Y96.807 E66.74848
G1 X161.867 Y97.321 E66.76953
G1 X162.167 Y97.877 E66.79054
G1 X162.395 Y98.466 E66.81155
G1 X162.547 Y99.08 E66.83259
G1 X162.627 Y99.971 E66.86234
G1 X162.627 Y120.021 E67.52921
G1 X162.587 Y120.652 E67.55023
G1 X162.468 Y121.273 E67.57127
G1 X162.271 Y121.873 E67.59227
G1 X162 Y122.445 E67.61332
G1 X161.66 Y122.977 E67.63432
G1 X161.254 Y123.462 E67.65536
G1 X160.791 Y123.892 E67.67637
G1 X160.277 Y124.261 E67.69742
G1 X159.721 Y124.561 E67.71843
G1 X159.132 Y124.789 E67.73944
G1 X158.518 Y124.941 E67.76048
G1 X157.627 Y125.021 E67.79023
G1 X62.711 Y125.02 E70.94715
G1 X62.388 Y125.021 E70.95789
G1 X61.757 Y124.983 E70.97892
G1 X61.136 Y124.866 E70.99994
G1 X60.535 Y124.671 E71.02095
G1 X59.963 Y124.402 E71.04197
G1 X59.429 Y124.063 E71.06301
G1 X58.943 Y123.659 E71.08403
G1 X58.511 Y123.197 E71.10507
G1 X58.141 Y122.685 E71.12608
G1 X57.839 Y122.129 E71.14712
G1 X57.609 Y121.54 E71.16816
G1 X57.456 Y120.927 E71.18917
G1 X57.373 Y120.021 E71.21943
G1 X57.373 Y99.971 E71.88629
G1 X57.413 Y99.34 E71.90732
G1 X57.532 Y98.719 E71.92835
G1 X57.729 Y98.119 E71.94936
G1 X58 Y97.547 E71.97041
G1 X58.34 Y97.015 E71.99141
G1 X58.746 Y96.53 E72.01245
G1 X59.209 Y96.1 E72.03346
G1 X59.723 Y95.731 E72.05451
G0 F6000 X60.105 Y95.969
G1 F1200 X60.651 Y95.705 E72.07468
G1 X61.227 Y95.516 E72.09484
G1 X61.823 Y95.404 E72.11501
G1 X62.373 Y95.371 E72.13334
G1 X157.627 Y95.371 E75.3015
G1 X158.232 Y95.411 E75.32167
G1 X158.826 Y95.53 E75.34182
G1 X159.4 Y95.726 E75.36199
G1 X159.943 Y95.997 E75.38217
G1 X160.446 Y96.336 E75.40235
G1 X160.899 Y96.738 E75.42249
