;FLAVOR:Marlin
;TIME:8525
;Filament used: 4.74793m
;Layer height: 0.2
;MINX:77.86
;MINY:94.86
;MINZ:0.2
;MAXX:140.14
;MAXY:125.14
;MAXZ:73.4
;Generated with Cura_SteamEngine 4.2.1
M140 S80
M105
M190 S80
M104 S240
M105
M109 S240
M82 ;absolute extrusion mode
M201 X500.00 Y500.00 Z100.00 E5000.00 ;Setup machine max acceleration
M203 X500.00 Y500.00 Z10.00 E50.00 ;Setup machine max feedrate
M204 P500.00 R1000.00 T500.00 ;Setup Print/Retract/Travel acceleration
M205 X8.00 Y8.00 Z0.40 E5.00 ;Setup Jerk
M220 S100 ;Reset Feedrate
M221 S100 ;Reset Flowrate

G28 ;Home

G92 E0 ;Reset Extruder
G1 Z2.0 F3000 ;Move Z Axis up
G1 X10.1 Y20 Z0.28 F5000.0 ;Move to start position
G1 X10.1 Y200.0 Z0.28 F1500.0 E15 ;Draw the first line
G1 X10.4 Y200.0 Z0.28 F5000.0 ;Move to side a little
G1 X10.4 Y20 Z0.28 F1500.0 E30 ;Draw the second line
G92 E0 ;Reset Extruder
G1 Z2.0 F3000 ;Move Z Axis up

M141 S36
G92 E0
G92 E0
G1 F2700 E-5
;LAYER_COUNT:370
;LAYER:0
M107
G0 F6000 X80.971 Y96.703 Z0.2
;TYPE:SKIRT
G1 F2700 E0
G1 F1200 X81.62 Y96.223 E0.02953
G1 X82.313 Y95.81 E0.05905
G1 X83.043 Y95.468 E0.08854
G1 X83.804 Y95.199 E0.11807
G1 X84.588 Y95.007 E0.1476
G1 X85.386 Y94.894 E0.17709
G1 X86.129 Y94.86 E0.2043
G1 X131.871 Y94.86 E1.87783
G1 X132.677 Y94.9 E1.90735
G1 X133.475 Y95.02 E1.93687
G1 X134.257 Y95.217 E1.96638
G1 X135.015 Y95.492 E1.99588
G1 X135.743 Y95.84 E2.0254
G1 X136.433 Y96.258 E2.05492
G1 X137.078 Y96.743 E2.08444
G1 X137.671 Y97.289 E2.11393
G1 X138.208 Y97.891 E2.14345
G1 X138.683 Y98.544 E2.17299
G1 X139.09 Y99.24 E2.20249
G1 X139.427 Y99.973 E2.232
G1 X139.69 Y100.736 E2.26153
G1 X139.875 Y101.521 E2.29104
G1 X139.983 Y102.32 E2.32054
G1 X140.011 Y102.924 E2.34266
G1 X140.14 Y116.795 E2.85017
G1 X140.107 Y117.601 E2.87968
G1 X139.995 Y118.4 E2.9092
G1 X139.804 Y119.184 E2.93872
G1 X139.537 Y119.945 E2.96823
G1 X139.196 Y120.676 E2.99774
G1 X138.784 Y121.37 E3.02727
G1 X138.305 Y122.019 E3.05678
G1 X137.756 Y122.627 E3.08675
G1 X137.627 Y122.756 E3.09342
G1 X137.029 Y123.297 E3.12293
G1 X136.38 Y123.777 E3.15246
G1 X135.687 Y124.19 E3.18197
G1 X134.957 Y124.532 E3.21147
G1 X134.196 Y124.801 E3.241
G1 X133.412 Y124.993 E3.27053
G1 X132.614 Y125.106 E3.30002
G1 X131.871 Y125.14 E3.32723
G1 X86.129 Y125.14 E5.00075
G1 X85.323 Y125.1 E5.03028
G1 X84.525 Y124.98 E5.0598
G1 X83.743 Y124.783 E5.0893
G1 X82.985 Y124.508 E5.11881
G1 X82.257 Y124.16 E5.14833
G1 X81.567 Y123.742 E5.17784
G1 X80.922 Y123.257 E5.20737
G1 X80.373 Y122.756 E5.23456
G1 X80.244 Y122.627 E5.24123
G1 X79.703 Y122.029 E5.27074
G1 X79.223 Y121.38 E5.30027
G1 X78.81 Y120.687 E5.32979
G1 X78.468 Y119.957 E5.35928
G1 X78.199 Y119.196 E5.38881
G1 X78.007 Y118.412 E5.41834
G1 X77.894 Y117.614 E5.44783
G1 X77.86 Y116.871 E5.47504
G1 X77.86 Y103.129 E5.97781
G1 X77.9 Y102.323 E6.00733
G1 X78.02 Y101.525 E6.03685
G1 X78.217 Y100.743 E6.06636
G1 X78.492 Y99.985 E6.09586
G1 X78.84 Y99.257 E6.12538
G1 X79.258 Y98.567 E6.1549
G1 X79.743 Y97.922 E6.18442
G1 X80.244 Y97.373 E6.21161
G1 X80.373 Y97.244 E6.21829
G1 X80.971 Y96.703 E6.24779
G0 F6000 X81.267 Y97.029
G1 F1200 X81.899 Y96.566 E6.27646
G1 X82.576 Y96.169 E6.30517
G1 X83.29 Y95.843 E6.33389
G1 X84.033 Y95.591 E6.36259
G1 X84.798 Y95.416 E6.3913
G1 X85.577 Y95.32 E6.42002
G1 X86.129 Y95.3 E6.44023
G1 X131.871 Y95.3 E8.11375
G1 X132.655 Y95.34 E8.14247
G1 X133.43 Y95.459 E8.17116
G1 X134.189 Y95.657 E8.19986
G1 X134.924 Y95.931 E8.22855
G1 X135.628 Y96.279 E8.25729
G1 X136.292 Y96.696 E8.28597
G1 X136.911 Y97.179 E8.3147
G1 X137.477 Y97.722 E8.34339
G1 X137.985 Y98.32 E8.3721
G1 X138.43 Y98.966 E8.4008
G1 X138.806 Y99.655 E8.42952
G1 X139.111 Y100.378 E8.45823
G1 X139.34 Y101.128 E8.48692
G1 X139.492 Y101.898 E8.51563
G1 X139.571 Y102.928 E8.55343
G1 X139.7 Y116.799 E9.06093
G1 X139.667 Y117.583 E9.08964
G1 X139.555 Y118.36 E9.11837
G1 X139.364 Y119.121 E9.14707
G1 X139.097 Y119.859 E9.17578
G1 X138.756 Y120.565 E9.20447
G1 X138.345 Y121.234 E9.2332
G1 X137.868 Y121.857 E9.2619
G1 X137.445 Y122.316 E9.28474
G1 X137.316 Y122.445 E9.29141
G1 X136.733 Y122.971 E9.32014
G1 X136.101 Y123.434 E9.3488
G1 X135.424 Y123.831 E9.37752
G1 X134.71 Y124.157 E9.40623
G1 X133.967 Y124.409 E9.43494
G1 X133.202 Y124.584 E9.46365
G1 X132.423 Y124.68 E9.49237
G1 X131.871 Y124.7 E9.51258
G1 X86.129 Y124.7 E11.1861
G1 X85.345 Y124.66 E11.21482
G1 X84.57 Y124.541 E11.24351
G1 X83.811 Y124.343 E11.2722
G1 X83.076 Y124.069 E11.3009
G1 X82.372 Y123.721 E11.32963
G1 X81.708 Y123.304 E11.35832
G1 X81.089 Y122.821 E11.38705
G1 X80.684 Y122.445 E11.40727
G1 X80.555 Y122.316 E11.41394
G1 X80.029 Y121.733 E11.44267
G1 X79.566 Y121.101 E11.47133
G1 X79.169 Y120.424 E11.50004
G1 X78.843 Y119.71 E11.52876
G1 X78.591 Y118.967 E11.55747
G1 X78.416 Y118.202 E11.58618
G1 X78.32 Y117.423 E11.61489
G1 X78.3 Y116.871 E11.6351
G1 X78.3 Y103.129 E12.13787
G1 X78.34 Y102.345 E12.16659
G1 X78.459 Y101.57 E12.19528
G1 X78.657 Y100.811 E12.22397
G1 X78.931 Y100.076 E12.25267
G1 X79.279 Y99.372 E12.28141
G1 X79.696 Y98.708 E12.31009
G1 X80.179 Y98.089 E12.33882
G1 X80.555 Y97.684 E12.35904
G1 X80.684 Y97.555 E12.36571
G1 X81.267 Y97.029 E12.39444
G0 F6000 X81.562 Y97.357
G1 F1200 X82.178 Y96.909 E12.42231
G1 X82.838 Y96.529 E12.45017
G1 X83.534 Y96.219 E12.47804
G1 X84.259 Y95.985 E12.50592
G1 X85.005 Y95.828 E12.53381
G1 X86.129 Y95.74 E12.57506
G1 X131.871 Y95.74 E14.24858
G1 X132.632 Y95.78 E14.27646
G1 X133.384 Y95.899 E14.30432
G1 X134.12 Y96.097 E14.3322
G1 X134.831 Y96.371 E14.36008
G1 X135.509 Y96.717 E14.38793
G1 X136.148 Y97.133 E14.41582
G1 X136.739 Y97.614 E14.4437
G1 X137.277 Y98.154 E14.47159
G1 X137.755 Y98.747 E14.49946
G1 X138.168 Y99.387 E14.52732
G1 X138.512 Y100.066 E14.55517
G1 X138.783 Y100.779 E14.58308
G1 X138.978 Y101.515 E14.61093
G1 X139.094 Y102.268 E14.63881
G1 X139.131 Y102.932 E14.66314
G1 X139.26 Y116.803 E15.17065
G1 X139.227 Y117.565 E15.19855
G1 X139.114 Y118.318 E15.22641
G1 X138.923 Y119.056 E15.2543
G1 X138.656 Y119.769 E15.28216
G1 X138.316 Y120.451 E15.31004
G1 X137.906 Y121.093 E15.33791
G1 X137.431 Y121.689 E15.36579
G1 X137.134 Y122.005 E15.38166
G1 X137.005 Y122.134 E15.38833
G1 X136.438 Y122.643 E15.41621
G1 X135.822 Y123.091 E15.44407
G1 X135.162 Y123.471 E15.47194
G1 X134.466 Y123.781 E15.49981
G1 X133.741 Y124.015 E15.52768
G1 X132.995 Y124.172 E15.55558
G1 X131.871 Y124.26 E15.59682
G1 X86.129 Y124.26 E17.27035
G1 X85.368 Y124.22 E17.29823
G1 X84.616 Y124.101 E17.32608
G1 X83.88 Y123.903 E17.35397
G1 X83.169 Y123.629 E17.38185
G1 X82.491 Y123.283 E17.4097
G1 X81.852 Y122.867 E17.43759
G1 X80.995 Y122.134 E17.47885
G1 X80.866 Y122.005 E17.48552
G1 X80.357 Y121.438 E17.5134
G1 X79.909 Y120.822 E17.54127
G1 X79.529 Y120.162 E17.56913
G1 X79.219 Y119.466 E17.59701
G1 X78.985 Y118.741 E17.62488
G1 X78.828 Y117.995 E17.65277
G1 X78.74 Y116.871 E17.69402
G1 X78.74 Y103.129 E18.19679
G1 X78.78 Y102.368 E18.22467
G1 X78.899 Y101.616 E18.25252
G1 X79.097 Y100.88 E18.28041
G1 X79.371 Y100.169 E18.30828
G1 X79.717 Y99.491 E18.33613
G1 X80.133 Y98.852 E18.36403
G1 X80.866 Y97.995 E18.40529
G1 X80.995 Y97.866 E18.41196
G1 X81.562 Y97.357 E18.43984
G0 F6000 X81.856 Y97.684
G1 F1200 X82.456 Y97.254 E18.46685
G1 X83.099 Y96.89 E18.49388
G1 X83.777 Y96.598 E18.52089
G1 X84.483 Y96.382 E18.5479
G1 X85.208 Y96.242 E18.57491
G1 X86.129 Y96.18 E18.60869
G1 X131.871 Y96.18 E20.28221
G1 X132.608 Y96.22 E20.30921
G1 X133.337 Y96.339 E20.33624
G1 X134.048 Y96.537 E20.36324
G1 X134.734 Y96.81 E20.39025
G1 X135.387 Y97.156 E20.41729
G1 X135.998 Y97.57 E20.44429
G1 X136.561 Y98.048 E20.47131
G1 X137.069 Y98.584 E20.49833
G1 X137.515 Y99.172 E20.52533
G1 X137.896 Y99.805 E20.55236
G1 X138.206 Y100.475 E20.57937
G1 X138.442 Y101.175 E20.6064
G1 X138.601 Y101.896 E20.63341
G1 X138.691 Y102.937 E20.67164
G1 X138.82 Y116.808 E21.17915
G1 X138.787 Y117.545 E21.20614
G1 X138.674 Y118.275 E21.23316
G1 X138.483 Y118.988 E21.26017
G1 X138.216 Y119.677 E21.2872
G1 X137.876 Y120.332 E21.3142
G1 X137.468 Y120.947 E21.34121
G1 X136.822 Y121.693 E21.37731
G1 X136.693 Y121.822 E21.38399
G1 X136.144 Y122.316 E21.41101
G1 X135.544 Y122.746 E21.43801
G1 X134.901 Y123.11 E21.46505
G1 X134.223 Y123.402 E21.49205
G1 X133.517 Y123.618 E21.51907
G1 X132.792 Y123.758 E21.54608
G1 X131.871 Y123.82 E21.57985
G1 X86.129 Y123.82 E23.25338
G1 X85.392 Y123.78 E23.28038
G1 X84.663 Y123.661 E23.3074
G1 X83.952 Y123.463 E23.33441
G1 X83.266 Y123.19 E23.36142
G1 X82.613 Y122.844 E23.38846
G1 X82.002 Y122.43 E23.41546
G1 X81.307 Y121.822 E23.44924
G1 X81.178 Y121.693 E23.45592
G1 X80.684 Y121.144 E23.48294
G1 X80.254 Y120.544 E23.50994
G1 X79.89 Y119.901 E23.53698
G1 X79.598 Y119.223 E23.56399
G1 X79.382 Y118.517 E23.591
G1 X79.242 Y117.792 E23.61801
G1 X79.18 Y116.871 E23.65178
G1 X79.18 Y103.129 E24.15455
G1 X79.22 Y102.392 E24.18155
G1 X79.339 Y101.663 E24.20858
G1 X79.537 Y100.952 E24.23558
G1 X79.81 Y100.266 E24.26259
G1 X80.156 Y99.613 E24.28963
G1 X80.57 Y99.002 E24.31663
G1 X81.178 Y98.307 E24.35042
G1 X81.307 Y98.178 E24.35709
G1 X81.856 Y97.684 E24.38411
G0 F6000 X82.15 Y98.013
G1 F1200 X82.732 Y97.599 E24.41024
G1 X83.357 Y97.254 E24.43636
G1 X84.017 Y96.98 E24.46251
G1 X84.703 Y96.781 E24.48864
G1 X85.407 Y96.661 E24.51477
G1 X86.129 Y96.62 E24.54123
G1 X131.871 Y96.62 E26.21475
G1 X132.584 Y96.66 E26.24088
G1 X133.288 Y96.779 E26.267
G1 X133.974 Y96.977 E26.29312
G1 X134.634 Y97.25 E26.31925
G1 X135.26 Y97.594 E26.34539
G1 X135.843 Y98.007 E26.37152
G1 X136.376 Y98.482 E26.39764
G1 X136.853 Y99.014 E26.42379
G1 X137.267 Y99.596 E26.44992
G1 X137.613 Y100.22 E26.47602
G1 X137.888 Y100.879 E26.50215
G1 X138.088 Y101.565 E26.52829
G1 X138.209 Y102.269 E26.55442
G1 X138.251 Y102.941 E26.57906
G1 X138.38 Y116.812 E27.08657
G1 X138.346 Y117.525 E27.11268
G1 X138.234 Y118.23 E27.1388
G1 X138.043 Y118.918 E27.16492
G1 X137.776 Y119.581 E27.19107
G1 X137.437 Y120.209 E27.21718
G1 X137.03 Y120.796 E27.24332
G1 X136.511 Y121.382 E27.27195
G1 X136.382 Y121.511 E27.27863
G1 X135.85 Y121.987 E27.30475
G1 X135.268 Y122.401 E27.33088
G1 X134.643 Y122.746 E27.357
G1 X133.983 Y123.02 E27.38314
G1 X133.297 Y123.219 E27.40927
G1 X132.593 Y123.339 E27.4354
G1 X131.871 Y123.38 E27.46186
G1 X86.129 Y123.38 E29.13538
G1 X85.416 Y123.34 E29.16151
G1 X84.712 Y123.221 E29.18763
G1 X84.026 Y123.023 E29.21376
G1 X83.366 Y122.75 E29.23989
G1 X82.74 Y122.406 E29.26602
G1 X82.157 Y121.993 E29.29216
G1 X81.618 Y121.511 E29.31861
G1 X81.489 Y121.382 E29.32529
G1 X81.013 Y120.85 E29.35141
G1 X80.599 Y120.268 E29.37754
G1 X80.254 Y119.643 E29.40366
G1 X79.98 Y118.983 E29.4298
G1 X79.781 Y118.297 E29.45593
G1 X79.661 Y117.593 E29.48206
G1 X79.62 Y116.871 E29.50852
G1 X79.62 Y103.129 E30.01129
G1 X79.66 Y102.416 E30.03741
G1 X79.779 Y101.712 E30.06353
G1 X79.977 Y101.026 E30.08966
G1 X80.25 Y100.366 E30.11579
G1 X80.594 Y99.74 E30.14192
G1 X81.007 Y99.157 E30.16806
G1 X81.489 Y98.618 E30.19452
G1 X81.618 Y98.489 E30.20119
G1 X82.15 Y98.013 E30.22731
G0 F6000 X82.443 Y98.342
G1 F1200 X83.008 Y97.946 E30.25255
G1 X83.614 Y97.619 E30.27774
G1 X84.254 Y97.364 E30.30295
G1 X84.919 Y97.184 E30.32815
G1 X85.601 Y97.084 E30.35337
G1 X86.129 Y97.06 E30.37271
G1 X131.871 Y97.06 E32.04623
G1 X132.559 Y97.1 E32.07145
G1 X133.238 Y97.219 E32.09667
G1 X133.898 Y97.416 E32.12187
G1 X134.531 Y97.689 E32.14709
G1 X135.128 Y98.033 E32.1723
G1 X135.681 Y98.443 E32.19748
G1 X136.183 Y98.915 E32.22269
G1 X136.627 Y99.442 E32.24791
G1 X137.007 Y100.017 E32.27312
G1 X137.318 Y100.632 E32.29833
G1 X137.556 Y101.278 E32.32352
G1 X137.717 Y101.948 E32.34873
G1 X137.811 Y102.945 E32.38537
G1 X137.94 Y116.816 E32.89288
G1 X137.906 Y117.504 E32.91808
G1 X137.793 Y118.184 E32.9433
G1 X137.602 Y118.846 E32.96851
G1 X137.336 Y119.481 E32.9937
G1 X136.998 Y120.082 E33.01892
G1 X136.592 Y120.639 E33.04414
G1 X136.2 Y121.071 E33.06548
G1 X136.071 Y121.2 E33.07216
G1 X135.557 Y121.658 E33.09735
G1 X134.992 Y122.054 E33.12259
G1 X134.386 Y122.381 E33.14778
G1 X133.746 Y122.636 E33.17299
G1 X133.081 Y122.816 E33.19819
G1 X132.399 Y122.916 E33.22341
G1 X131.871 Y122.94 E33.24275
G1 X86.129 Y122.94 E34.91627
G1 X85.441 Y122.9 E34.94149
G1 X84.762 Y122.781 E34.96671
G1 X84.102 Y122.584 E34.99191
G1 X83.469 Y122.311 E35.01713
G1 X82.872 Y121.967 E35.04234
G1 X82.319 Y121.557 E35.06752
G1 X81.929 Y121.2 E35.08687
G1 X81.8 Y121.071 E35.09354
G1 X81.342 Y120.557 E35.11873
G1 X80.946 Y119.992 E35.14397
G1 X80.619 Y119.386 E35.16916
G1 X80.364 Y118.746 E35.19437
G1 X80.184 Y118.081 E35.21958
G1 X80.084 Y117.399 E35.24479
G1 X80.06 Y116.871 E35.26413
G1 X80.06 Y103.129 E35.7669
G1 X80.1 Y102.441 E35.79211
G1 X80.219 Y101.762 E35.81733
G1 X80.416 Y101.102 E35.84253
G1 X80.689 Y100.469 E35.86775
G1 X81.033 Y99.872 E35.89296
G1 X81.443 Y99.319 E35.91815
G1 X81.8 Y98.929 E35.93749
G1 X81.929 Y98.8 E35.94417
G1 X82.443 Y98.342 E35.96935
G0 F6000 X82.736 Y98.671
G1 F1200 X83.282 Y98.294 E35.99363
G1 X83.869 Y97.986 E36.01788
G1 X84.488 Y97.75 E36.04212
G1 X85.132 Y97.591 E36.06639
G1 X85.79 Y97.51 E36.09064
G1 X86.129 Y97.5 E36.10305
G1 X131.871 Y97.5 E37.77658
G1 X132.533 Y97.54 E37.80084
G1 X133.185 Y97.659 E37.82509
G1 X133.818 Y97.856 E37.84934
G1 X134.423 Y98.128 E37.87361
G1 X134.991 Y98.47 E37.89787
G1 X135.513 Y98.879 E37.92213
G1 X135.983 Y99.347 E37.9464
G1 X136.392 Y99.868 E37.97063
G1 X136.736 Y100.435 E37.99489
G1 X137.01 Y101.039 E38.01916
G1 X137.208 Y101.672 E38.04342
G1 X137.329 Y102.323 E38.06765
G1 X137.371 Y102.949 E38.0906
G1 X137.5 Y116.82 E38.59811
G1 X137.466 Y117.482 E38.62236
G1 X137.353 Y118.135 E38.64661
G1 X137.162 Y118.77 E38.67087
G1 X136.896 Y119.378 E38.69515
G1 X136.558 Y119.948 E38.7194
G1 X136.155 Y120.475 E38.74367
G1 X135.889 Y120.76 E38.75793
G1 X135.76 Y120.889 E38.76461
G1 X135.264 Y121.329 E38.78886
G1 X134.718 Y121.706 E38.81314
G1 X134.131 Y122.014 E38.83739
G1 X133.512 Y122.25 E38.86163
G1 X132.868 Y122.409 E38.8859
G1 X132.21 Y122.49 E38.91015
G1 X131.871 Y122.5 E38.92256
G1 X86.129 Y122.5 E40.59609
G1 X85.467 Y122.46 E40.62035
G1 X84.815 Y122.341 E40.6446
G1 X84.182 Y122.144 E40.66885
G1 X83.577 Y121.872 E40.69312
G1 X83.009 Y121.53 E40.71738
G1 X82.487 Y121.121 E40.74164
G1 X82.24 Y120.889 E40.75404
G1 X82.111 Y120.76 E40.76071
G1 X81.671 Y120.264 E40.78497
G1 X81.294 Y119.718 E40.80925
G1 X80.986 Y119.131 E40.8335
G1 X80.75 Y118.512 E40.85774
G1 X80.591 Y117.868 E40.882
G1 X80.51 Y117.21 E40.90626
G1 X80.5 Y116.871 E40.91867
G1 X80.5 Y103.129 E41.42143
G1 X80.54 Y102.467 E41.4457
G1 X80.659 Y101.815 E41.46995
G1 X80.856 Y101.182 E41.4942
G1 X81.128 Y100.577 E41.51847
G1 X81.47 Y100.009 E41.54273
G1 X81.879 Y99.487 E41.56699
G1 X82.111 Y99.24 E41.57939
G1 X82.24 Y99.111 E41.58606
G1 X82.736 Y98.671 E41.61032
G0 F6000 X83.028 Y99.002
G1 F1200 X83.554 Y98.644 E41.6336
G1 X84.121 Y98.356 E41.65687
G1 X84.719 Y98.14 E41.68013
G1 X85.34 Y98.002 E41.7034
G1 X86.129 Y97.94 E41.73236
G1 X131.871 Y97.94 E43.40588
G1 X132.506 Y97.98 E43.42916
G1 X133.13 Y98.099 E43.4524
G1 X133.735 Y98.296 E43.47568
G1 X134.31 Y98.567 E43.49894
G1 X134.847 Y98.908 E43.52221
G1 X135.337 Y99.313 E43.54547
G1 X135.772 Y99.777 E43.56874
G1 X136.145 Y100.292 E43.592
G1 X136.451 Y100.85 E43.61528
G1 X136.685 Y101.441 E43.63854
G1 X136.842 Y102.057 E43.6618
G1 X136.931 Y102.953 E43.69474
G1 X137.06 Y116.824 E44.20225
G1 X137.026 Y117.459 E44.22551
G1 X136.912 Y118.085 E44.24879
G1 X136.721 Y118.691 E44.27204
G1 X136.456 Y119.269 E44.2953
G1 X136.12 Y119.809 E44.31857
G1 X135.578 Y120.449 E44.34926
G1 X135.449 Y120.578 E44.35593
G1 X134.972 Y120.998 E44.37918
G1 X134.446 Y121.356 E44.40246
G1 X133.879 Y121.644 E44.42573
G1 X133.281 Y121.86 E44.44899
G1 X132.66 Y121.998 E44.47226
G1 X131.871 Y122.06 E44.50122
G1 X86.129 Y122.06 E46.17474
G1 X85.494 Y122.02 E46.19802
G1 X84.87 Y121.901 E46.22126
G1 X84.265 Y121.704 E46.24454
G1 X83.69 Y121.433 E46.2678
G1 X83.153 Y121.092 E46.29107
G1 X82.551 Y120.578 E46.32003
G1 X82.422 Y120.449 E46.32671
G1 X82.002 Y119.972 E46.34996
G1 X81.644 Y119.446 E46.37324
G1 X81.356 Y118.879 E46.3965
G1 X81.14 Y118.281 E46.41977
G1 X81.002 Y117.66 E46.44304
G1 X80.94 Y116.871 E46.472
